X:362
T:The Young Man's Lamentation
B:Joyce, P. W.; "Old Irish Folk Music and Songs"
N:See first paragraph in #361 for more information
R:song air
A:Cork
O:Irish
L:1/8
M:3/4
K:F
D2|FG A2 GF|GA c2 dc|AG FD CA,|C4 D2| FG A2 GF|GA Hc2 d>c|AGFDCE|D4||((3A=Bc)|
d2d2f>d|d2c2 dc|AGFDCA,|C4 ((3CDE)| FG A2 GF|GA Hc2 dc|AGFDCE|D4||

